src/icons/solid/users/administrator.svg

<svg width="24" height="24" viewBox="0 0 24 24" fill="none" xmlns="http://www.w3.org/2000/svg">
<g clip-path="url(#clip0_5032_1507)">
<path d="M6.95312 13.6153C7.3892 13.4458 7.88817 13.5853 8.1582 13.9542L9.50781 15.9893C10.0025 16.6887 9.82595 17.5248 9.64941 18.3604C9.6296 18.4542 9.60968 18.5481 9.59082 18.6417L8.43848 23.0001V22.9903H4.33691C3.03883 22.9903 2 21.9725 2 20.7159C2.00005 18.4821 2.97596 16.4775 4.54395 15.0714C4.89702 14.7523 5.29226 14.4631 5.69727 14.2237C5.9984 14.0343 6.51715 13.8047 6.95312 13.6153Z" fill="#3C3B44"/>
<path d="M15.8418 13.9542C16.1118 13.5856 16.61 13.4461 17.0459 13.6153C17.482 13.8048 18.0016 14.0343 18.3027 14.2237C18.7076 14.463 19.1021 14.7524 19.4551 15.0714C21.0231 16.4775 21.9999 18.4821 22 20.7159C22 21.9725 20.9612 22.9903 19.6631 22.9903H15.5615V23.0001L14.4082 18.6417C14.3894 18.5482 14.3704 18.4542 14.3506 18.3604C14.1741 17.5249 13.9968 16.6886 14.4912 15.9893L15.8418 13.9542Z" fill="#3C3B44"/>
<path d="M12.6338 13.4063L12.3223 13.4962L14.0977 21.045C14.1703 21.3541 14.0357 21.6737 13.7451 21.8731L12.3535 22.8702C12.1458 23.0198 11.8444 23.0198 11.6367 22.8702L10.2451 21.8731C9.95435 21.6637 9.81891 21.3444 9.8916 21.0352L11.666 13.4923L11.3564 13.4063L11.2002 12.8282H12.7891L12.6338 13.4063Z" fill="#3C3B44"/>
<path d="M12 1.00009C15.1315 1.00009 17.6699 3.43813 17.6699 6.4454C17.6698 9.45258 15.1314 11.8907 12 11.8907C8.86865 11.8907 6.33019 9.45255 6.33008 6.4454C6.33008 3.43816 8.86858 1.00014 12 1.00009Z" fill="#3C3B44"/>
</g>
<defs>
<clipPath id="clip0_5032_1507">
<rect width="24" height="24" fill="white"/>
</clipPath>
</defs>
</svg>

<svg xmlns="http://www.w3.org/2000/svg" width="24" height="24" fill="none" viewBox="0 0 24 24"><g fill="currentColor" clip-path="url(#a)"><path d="M6.953 13.615c.436-.17.935-.03 1.205.34l1.35 2.034c.495.7.318 1.536.141 2.371l-.058.282L8.438 23v-.01H4.337C3.039 22.99 2 21.973 2 20.716c0-2.234.976-4.239 2.544-5.645a7 7 0 0 1 1.153-.847c.301-.19.82-.42 1.256-.609m8.889.339c.27-.368.768-.508 1.204-.339.436.19.956.42 1.257.609.405.239.8.528 1.152.847C21.023 16.477 22 18.482 22 20.716c0 1.256-1.039 2.274-2.337 2.274h-4.101V23l-1.154-4.358-.057-.282c-.177-.835-.354-1.671.14-2.37zm-3.208-.548-.312.09 1.776 7.549c.072.31-.062.629-.353.828l-1.391.997a.63.63 0 0 1-.717 0l-1.392-.997c-.29-.21-.426-.529-.353-.838l1.774-7.543-.31-.086-.156-.578h1.59zM12 1c3.132 0 5.67 2.438 5.67 5.445s-2.54 5.446-5.67 5.446-5.67-2.438-5.67-5.446S8.87 1 12 1"/></g><defs><clipPath id="a"><path fill="currentColor" d="M0 0h24v24H0z"/></clipPath></defs></svg>
